X: 21207
T: Kats Of Kilkenny
R: jig
M: 6/8
K: Gmajor
|:GFG FGE|DGA BAG|AFF ABc|BGB A2D|
GFG FGE|DGA BAG|AFF ABc|BGF G3:|
|:B3 Bcd|c3 cAB|cdB cAB|GFG D2G|
B3 Bcd|c3 G2A|BcA BGA|DGF G2A|
B3 Bcd|c3 cAB|cdB cAB|FGF D3|
GFG FGE|DGA BAG|AFF ABc|BGF G3:|

